X:2063
T:Thurot 
C:Mrs Lawson, Jurby East
O:Isle of Man
S:Traditional 
Z:Clague collection
B:Kiaull Vannin #63
M:4/4 
L:1/4
K:D 
A/B/|cc BA|BG EE|AA EE|E3 c/d/|ee fe|cB A>A|BB cd|e3 c|
ee fe|ec AA|BB cd|e3 d|cc Ac|BG EE|AG EE|E3||

